X:205
T: Banbian hanrui banbian kai
N: C0333
O: China, Jiangsu, Wuxi, Sued)
S: III, 504]
N: Charakteristisch ist die Triole.
R: Shange. Saige]
M: 2/4
L: 1/16
K: G
e2f2f2ed | e2f2e4 | d6ged | B8
A2BdB2AG | A8 | A3dBdBA | A4z2
A2 | E2G2G2A2Bd | B2AGA4
d2eddBAG | A8 | A3dBdBA | A8

